X:1
T:Title
%%score { 1 | ( 2 3 ) }
L:1/8
M:9/8
K:F
V:1 treble nm="Grand Piano"
V:2 bass 
V:3 bass 
V:1
 z3 z3[Q:1/4=107] CFG | A3 G3 F3 | [FA]3 [EG]3 CE[EG] | [GB]3 [FA]3 [EG]3 |[M:3/4] A6 | %5
[M:3/8] ABc |[M:9/8] [Fd]3 [DFB]2 [DFB] [B,DF][DFB][Fd] | c3 A3 FGA | [DG]3 F3 E3 |[M:3/4] F6 | %10
[M:3/8][K:bass] C,D,E, |[M:9/8][K:treble] CFA c2 d cBA | c2 B [EG]3[K:bass] C,E,G, | %13
 GGG G>AB [Ec][Fc][GB] | A6 B,A,G, | AB=B c>[_Ad][=Ac] F_BF | [DG]3 [Dd]3[K:bass] C,D,E, | %17
 cAd c2 A [GB][FA][EG] |[M:3/4] F6 |] %19
V:2
 z3 z3 [F,A,][F,A,C][F,B,F] | [F,CF]3 [F,B,C]3 [F,A,C]3 | [C,C]3 [C,C]3 C,[C,C][C,C] | %3
 [C,C]3 [C,C]3 [C,C]3 |[M:3/4] [F,CF]6 |[M:3/8] [F,F][F,G,F][F,A,F] | %6
[M:9/8] [B,,B,]3 B,,2 B,, B,,B,,[B,,B,] | [F,F]3- [F,CF]3 [F,A,C][F,B,C][F,CF] | %8
 [B,,B,]3 [C,A,C]3 [C,G,C]3 |[M:3/4] [F,A,C]6 |[M:3/8] z3 | %11
[M:9/8] F,-[F,-A,C][F,-CF] [F,A,F]2[K:treble] [B,F] [A,CF][G,CE][F,CF] | %12
 [G,CE]3[K:bass] [C,C]3 z3 | [CE][CE][CE] [CE]>[A,CF][K:bass][G,CE] [C,C][D,C][E,C] | [F,CF]6 z3 | %15
 [CF][CG][D_A] [C=A]>[K:bass][F,=B,][F,C] [A,C][G,CE][F,C] | [B,,B,]3 [B,,B,]3 z3 | %17
 [A,F][CF][B,F] [A,F]2[K:bass] [F,CF] [C,C][C,C][B,,B,] |[M:3/4] [F,A,]6 |] %19
V:3
 x9 | x9 | x9 | x9 |[M:3/4] x6 |[M:3/8] x3 |[M:9/8] x9 | A,3 z3 z3 | x9 |[M:3/4] x6 |[M:3/8] x3 | %11
[M:9/8] .A,3 z3[K:treble] z3 | x3[K:bass] x6 | B,6[K:bass] z3 | x9 | F,6[K:bass] z3 | x9 | %17
 F,6[K:bass] z3 |[M:3/4] x6 |] %19

